src/assets/icons/sun.svg

<svg width="14" height="14" viewBox="0 0 14 14" fill="none" xmlns="http://www.w3.org/2000/svg">
<g id="sun">
<g clip-path="url(#clip0_156_4646)">
<path id="Vector" fill-rule="evenodd" clip-rule="evenodd" d="M7 0C7.28995 0 7.525 0.23505 7.525 0.525V1.575C7.525 1.86495 7.28995 2.1 7 2.1C6.71005 2.1 6.475 1.86495 6.475 1.575V0.525C6.475 0.23505 6.71005 0 7 0ZM7 4.025C5.35695 4.025 4.025 5.35695 4.025 7C4.025 8.64305 5.35695 9.975 7 9.975C8.64305 9.975 9.975 8.64305 9.975 7C9.975 5.35695 8.64305 4.025 7 4.025ZM2.975 7C2.975 4.77705 4.77705 2.975 7 2.975C9.22295 2.975 11.025 4.77705 11.025 7C11.025 9.22295 9.22295 11.025 7 11.025C4.77705 11.025 2.975 9.22295 2.975 7ZM7.525 12.425C7.525 12.1351 7.28995 11.9 7 11.9C6.71005 11.9 6.475 12.1351 6.475 12.425V13.475C6.475 13.7649 6.71005 14 7 14C7.28995 14 7.525 13.7649 7.525 13.475V12.425ZM11.9 7C11.9 6.71005 12.1351 6.475 12.425 6.475H13.475C13.7649 6.475 14 6.71005 14 7C14 7.28995 13.7649 7.525 13.475 7.525H12.425C12.1351 7.525 11.9 7.28995 11.9 7ZM0.525 6.475C0.23505 6.475 0 6.71005 0 7C0 7.28995 0.23505 7.525 0.525 7.525H1.575C1.86495 7.525 2.1 7.28995 2.1 7C2.1 6.71005 1.86495 6.475 1.575 6.475H0.525ZM2.03677 2.03673C2.2418 1.8317 2.57421 1.8317 2.77923 2.03673L3.52123 2.77873C3.72626 2.98375 3.72626 3.31616 3.52123 3.52119C3.31621 3.72621 2.9838 3.72621 2.77877 3.52119L2.03677 2.77919C1.83175 2.57417 1.83175 2.24175 2.03677 2.03673ZM11.2212 10.4788C11.0162 10.2737 10.6838 10.2737 10.4788 10.4788C10.2737 10.6838 10.2737 11.0162 10.4788 11.2212L11.2208 11.9632C11.4258 12.1683 11.7582 12.1683 11.9632 11.9632C12.1683 11.7582 12.1683 11.4258 11.9632 11.2208L11.2212 10.4788ZM11.9632 2.03673C12.1683 2.24175 12.1683 2.57417 11.9632 2.77919L11.2212 3.52119C11.0162 3.72621 10.6838 3.72621 10.4788 3.52119C10.2737 3.31616 10.2737 2.98375 10.4788 2.77873L11.2208 2.03673C11.4258 1.8317 11.7582 1.8317 11.9632 2.03673ZM3.52123 11.2212C3.72626 11.0162 3.72626 10.6838 3.52123 10.4788C3.31621 10.2737 2.9838 10.2737 2.77877 10.4788L2.03677 11.2208C1.83175 11.4258 1.83175 11.7582 2.03677 11.9632C2.2418 12.1683 2.57421 12.1683 2.77923 11.9632L3.52123 11.2212Z" fill="black"/>
</g>
</g>
<defs>
<clipPath id="clip0_156_4646">
<rect width="14" height="14" fill="white"/>
</clipPath>
</defs>
</svg>

<svg xmlns="http://www.w3.org/2000/svg" fill="none" viewBox="0 0 14 14"><g clip-path="url(#a)"><path fill="#000" fill-rule="evenodd" d="M7 0c.29 0 .525.235.525.525v1.05a.525.525 0 1 1-1.05 0V.525C6.475.235 6.71 0 7 0m0 4.025a2.975 2.975 0 1 0 0 5.95 2.975 2.975 0 0 0 0-5.95M2.975 7a4.025 4.025 0 1 1 8.05 0 4.025 4.025 0 0 1-8.05 0m4.55 5.425a.525.525 0 0 0-1.05 0v1.05a.525.525 0 0 0 1.05 0zM11.9 7c0-.29.235-.525.525-.525h1.05a.525.525 0 0 1 0 1.05h-1.05A.525.525 0 0 1 11.9 7M.525 6.475a.525.525 0 1 0 0 1.05h1.05a.525.525 0 1 0 0-1.05zm1.512-4.438a.525.525 0 0 1 .742 0l.742.742a.525.525 0 1 1-.742.742l-.742-.742a.525.525 0 0 1 0-.742m9.184 8.442a.525.525 0 1 0-.742.742l.742.742a.525.525 0 1 0 .742-.742zm.742-8.442a.525.525 0 0 1 0 .742l-.742.742a.525.525 0 1 1-.742-.742l.742-.742a.525.525 0 0 1 .742 0M3.521 11.22a.525.525 0 1 0-.742-.742l-.742.742a.525.525 0 1 0 .742.742z" clip-rule="evenodd"/></g><defs><clipPath id="a"><path fill="#fff" d="M0 0h14v14H0z"/></clipPath></defs></svg>
